;FLAVOR:Marlin
;TIME:2769
;Filament used: 3.23672m
;Layer height: 0.2
;Generated with Cura_SteamEngine 3.2.1
M190 S60
M104 S215
M109 S215
M82 ;absolute extrusion mode
G28 ;Home
G1 Z15.0 F6000 ;Move the platform down 15mm
;Prime the extruder
G92 E0
G1 F200 E3
G92 E0
;LAYER_COUNT:85
;LAYER:0
M107
G0 F3600 X69.87 Y121.383 Z0.3
;TYPE:SKIRT
G1 F1800 X70.561 Y120.999 E0.03944
G1 X71.286 Y120.687 E0.07882
G1 X72.039 Y120.45 E0.1182
G1 X72.813 Y120.291 E0.15762
G1 X73.598 Y120.21 E0.19699
G1 X74 Y120.2 E0.21706
G1 X130.865 Y120.2 E3.05406
G1 X131.08 Y119.922 E3.0716
G1 X131.623 Y119.349 E3.11098
G1 X132.2 Y118.853 E3.14894
G1 X132.2 Y87.8 E4.69818
G1 X130 Y87.8 E4.80794
G1 X129.211 Y87.76 E4.84735
G1 X128.431 Y87.641 E4.88672
G1 X127.666 Y87.443 E4.92614
G1 X126.926 Y87.169 E4.96551
G1 X126.217 Y86.821 E5.00491
G1 X125.546 Y86.403 E5.04435
G1 X124.922 Y85.92 E5.08372
G1 X124.349 Y85.377 E5.12311
G1 X123.834 Y84.778 E5.16252
G1 X123.383 Y84.13 E5.20191
G1 X122.999 Y83.439 E5.24135
G1 X122.687 Y82.714 E5.28072
G1 X122.45 Y81.961 E5.32011
G1 X122.291 Y81.187 E5.35953
G1 X122.21 Y80.402 E5.3989
G1 X122.2 Y80 E5.41896
G1 X122.2 Y75 E5.66841
G1 X122.24 Y74.211 E5.70783
G1 X122.359 Y73.431 E5.74719
G1 X122.557 Y72.666 E5.78662
G1 X122.831 Y71.926 E5.82598
G1 X123.179 Y71.217 E5.86539
G1 X123.597 Y70.546 E5.90483
G1 X124.08 Y69.922 E5.9442
G1 X124.623 Y69.349 E5.98358
G1 X125.222 Y68.834 E6.02299
G1 X125.87 Y68.383 E6.06238
G1 X126.561 Y67.999 E6.10182
G1 X127.286 Y67.687 E6.1412
G1 X128.039 Y67.45 E6.18058
G1 X128.813 Y67.291 E6.22
G1 X129.598 Y67.21 E6.25937
G1 X130 Y67.2 E6.27944
G1 X146 Y67.2 E7.07768
G1 X146.789 Y67.24 E7.11709
G1 X147.569 Y67.359 E7.15646
G1 X148.334 Y67.557 E7.19588
G1 X149.074 Y67.831 E7.23525
G1 X149.783 Y68.179 E7.27465
G1 X150.454 Y68.597 E7.31409
G1 X151.078 Y69.08 E7.35346
G1 X151.651 Y69.623 E7.39284
G1 X152.166 Y70.222 E7.43226
G1 X152.617 Y70.87 E7.47164
G1 X153.001 Y71.561 E7.51108
G1 X153.313 Y72.286 E7.55046
G1 X153.55 Y73.039 E7.58985
G1 X153.709 Y73.813 E7.62927
G1 X153.79 Y74.598 E7.66864
G1 X153.8 Y75 E7.6887
G1 X153.8 Y135 E10.68211
G1 X153.76 Y135.789 E10.72153
G1 X153.641 Y136.569 E10.76089
G1 X153.443 Y137.334 E10.80031
G1 X153.169 Y138.074 E10.83968
G1 X152.821 Y138.783 E10.87909
G1 X152.403 Y139.454 E10.91853
G1 X151.92 Y140.078 E10.95789
G1 X151.377 Y140.651 E10.99728
G1 X150.778 Y141.166 E11.03669
G1 X150.13 Y141.617 E11.07608
G1 X149.439 Y142.001 E11.11552
G1 X148.714 Y142.313 E11.1549
G1 X147.961 Y142.55 E11.19428
G1 X147.187 Y142.709 E11.2337
G1 X146.402 Y142.79 E11.27307
G1 X146 Y142.8 E11.29313
G1 X74 Y142.8 E14.88523
G1 X73.211 Y142.76 E14.92464
G1 X72.431 Y142.641 E14.96401
G1 X71.666 Y142.443 E15.00343
G1 X70.926 Y142.169 E15.0428
G1 X70.217 Y141.821 E15.0822
G1 X69.546 Y141.403 E15.12164
G1 X68.922 Y140.92 E15.16101
G1 X68.349 Y140.377 E15.2004
G1 X67.834 Y139.778 E15.23981
G1 X67.383 Y139.13 E15.27919
G1 X66.999 Y138.439 E15.31863
G1 X66.687 Y137.714 E15.35801
G1 X66.45 Y136.961 E15.3974
G1 X66.291 Y136.187 E15.43682
G1 X66.21 Y135.402 E15.47619
G1 X66.2 Y135 E15.49625
G1 X66.2 Y128 E15.84548
G1 X66.24 Y127.211 E15.8849
G1 X66.359 Y126.431 E15.92426
G1 X66.557 Y125.666 E15.96368
G1 X66.831 Y124.926 E16.00305
G1 X67.179 Y124.217 E16.04246
G1 X67.597 Y123.546 E16.0819
G1 X68.08 Y122.922 E16.12126
G1 X68.623 Y122.349 E16.16065
G1 X69.222 Y121.834 E16.20006
G1 X69.87 Y121.383 E16.23945
G0 F3600 X70.253 Y121.619
G1 F1800 X70.936 Y121.264 E16.27785
G1 X71.651 Y120.983 E16.31618
G1 X72.393 Y120.777 E16.3546
G1 X73.151 Y120.649 E16.39295
G1 X74 Y120.6 E16.43538
G1 X131.056 Y120.6 E19.28191
G1 X131.475 Y120.077 E19.31535
G1 X132.016 Y119.53 E19.35373
G1 X132.6 Y119.051 E19.39141
G1 X132.6 Y87.4 E20.97049
G1 X130 Y87.4 E21.1002
G1 X129.232 Y87.36 E21.13857
G1 X128.472 Y87.241 E21.17695
G1 X127.729 Y87.043 E21.21531
G1 X127.01 Y86.769 E21.2537
G1 X126.324 Y86.422 E21.29205
G1 X125.677 Y86.006 E21.33043
G1 X125.077 Y85.525 E21.36879
G1 X124.53 Y84.984 E21.40717
G1 X124.042 Y84.389 E21.44557
G1 X123.619 Y83.747 E21.48392
G1 X123.264 Y83.064 E21.52233
G1 X122.983 Y82.349 E21.56065
G1 X122.777 Y81.607 E21.59907
G1 X122.649 Y80.849 E21.63742
G1 X122.6 Y80 E21.67985
G1 X122.6 Y75 E21.9293
G1 X122.64 Y74.232 E21.96767
G1 X122.759 Y73.472 E22.00605
G1 X122.957 Y72.729 E22.04441
G1 X123.231 Y72.01 E22.0828
G1 X123.578 Y71.324 E22.12115
G1 X123.994 Y70.677 E22.15953
G1 X124.475 Y70.077 E22.19789
G1 X125.016 Y69.53 E22.23628
G1 X125.611 Y69.042 E22.27467
G1 X126.253 Y68.619 E22.31302
G1 X126.936 Y68.264 E22.35143
G1 X127.651 Y67.983 E22.38975
G1 X128.393 Y67.777 E22.42817
G1 X129.151 Y67.649 E22.46652
G1 X130 Y67.6 E22.50895
G1 X146 Y67.6 E23.3072
G1 X146.768 Y67.64 E23.34556
G1 X147.528 Y67.759 E23.38394
G1 X148.271 Y67.957 E23.4223
G1 X148.99 Y68.231 E23.46069
G1 X149.676 Y68.578 E23.49905
G1 X150.323 Y68.994 E23.53742
G1 X150.923 Y69.475 E23.57579
G1 X151.47 Y70.016 E23.61417
G1 X151.958 Y70.611 E23.65256
G1 X152.381 Y71.253 E23.69092
G1 X152.736 Y71.936 E23.72932
G1 X153.017 Y72.651 E23.76765
G1 X153.223 Y73.393 E23.80607
G1 X153.351 Y74.151 E23.84442
G1 X153.4 Y75 E23.88685
G1 X153.4 Y135 E26.88026
G1 X153.36 Y135.768 E26.91863
G1 X153.241 Y136.528 E26.957
G1 X153.043 Y137.271 E26.99537
G1 X152.769 Y137.99 E27.03375
G1 X152.422 Y138.676 E27.07211
G1 X152.006 Y139.323 E27.11048
G1 X151.525 Y139.923 E27.14885
G1 X150.984 Y140.47 E27.18723
G1 X150.389 Y140.958 E27.22562
G1 X149.747 Y141.381 E27.26398
G1 X149.064 Y141.736 E27.30238
G1 X148.349 Y142.017 E27.34071
G1 X147.607 Y142.223 E27.37913
G1 X146.849 Y142.351 E27.41748
G1 X146 Y142.4 E27.45991
G1 X74 Y142.4 E31.052
G1 X73.232 Y142.36 E31.09037
G1 X72.472 Y142.241 E31.12875
G1 X71.729 Y142.043 E31.16711
G1 X71.01 Y141.769 E31.2055
G1 X70.324 Y141.422 E31.24385
G1 X69.677 Y141.006 E31.28223
G1 X69.077 Y140.525 E31.32059
G1 X68.53 Y139.984 E31.35898
G1 X68.042 Y139.389 E31.39737
G1 X67.619 Y138.747 E31.43573
G1 X67.264 Y138.064 E31.47413
G1 X66.983 Y137.349 E31.51246
G1 X66.777 Y136.607 E31.55087
G1 X66.649 Y135.849 E31.58923
G1 X66.6 Y135 E31.63165
G1 X66.6 Y128 E31.98089
G1 X66.64 Y127.232 E32.01925
G1 X66.759 Y126.472 E32.05763
G1 X66.957 Y125.729 E32.09599
G1 X67.231 Y125.01 E32.13438
G1 X67.578 Y124.324 E32.17274
G1 X67.994 Y123.677 E32.21111
G1 X68.475 Y123.077 E32.24948
G1 X69.016 Y122.53 E32.28786
G1 X69.611 Y122.042 E32.32625
G1 X70.253 Y121.619 E32.36461
G0 F3600 X69.998 Y122.257
G1 F1800 X70.634 Y121.862 E32.40196
G1 X71.308 Y121.538 E32.43927
G1 X72.013 Y121.288 E32.47659
G1 X72.741 Y121.114 E32.51393
G1 X73.483 Y121.019 E32.55125
G1 X74 Y121 E32.57706
G1 X131.266 Y121 E35.43407
G1 X131.392 Y120.811 E35.44541
G1 X131.871 Y120.237 E35.4827
G1 X132.408 Y119.716 E35.52003
G1 X132.998 Y119.257 E35.55733
G1 X133 Y119.256 E35.55744
G1 X133 Y87 E37.1667
G1 X130 Y87 E37.31637
G1 X129.253 Y86.96 E37.35369
G1 X128.515 Y86.841 E37.39098
G1 X127.793 Y86.643 E37.42833
G1 X127.097 Y86.37 E37.46563
G1 X126.434 Y86.023 E37.50297
G1 X125.811 Y85.608 E37.54031
G1 X125.237 Y85.129 E37.57761
G1 X124.716 Y84.592 E37.61494
G1 X124.257 Y84.002 E37.65223
G1 X123.862 Y83.366 E37.68958
G1 X123.538 Y82.692 E37.72689
G1 X123.288 Y81.987 E37.76421
G1 X123.114 Y81.259 E37.80156
G1 X123.019 Y80.517 E37.83888
G1 X123 Y80 E37.86469
G1 X123 Y75 E38.11414
G1 X123.04 Y74.253 E38.15146
G1 X123.159 Y73.515 E38.18875
G1 X123.357 Y72.793 E38.2261
G1 X123.63 Y72.097 E38.2634
G1 X123.977 Y71.434 E38.30074
G1 X124.392 Y70.811 E38.33808
G1 X124.871 Y70.237 E38.37538
G1 X125.408 Y69.716 E38.41271
G1 X125.998 Y69.257 E38.45
G1 X126.634 Y68.862 E38.48736
G1 X127.308 Y68.538 E38.52467
G1 X128.013 Y68.288 E38.56198
G1 X128.741 Y68.114 E38.59933
G1 X129.483 Y68.019 E38.63665
G1 X130 Y68 E38.66246
G1 X146 Y68 E39.4607
G1 X146.747 Y68.04 E39.49802
G1 X147.485 Y68.159 E39.53532
G1 X148.207 Y68.357 E39.57267
G1 X148.903 Y68.63 E39.60997
G1 X149.566 Y68.977 E39.6473
G1 X150.189 Y69.392 E39.68465
G1 X150.763 Y69.871 E39.72195
G1 X151.284 Y70.408 E39.75927
G1 X151.743 Y70.998 E39.79657
G1 X152.138 Y71.634 E39.83392
G1 X152.462 Y72.308 E39.87123
G1 X152.712 Y73.013 E39.90855
G1 X152.886 Y73.741 E39.94589
G1 X152.981 Y74.483 E39.98321
G1 X153 Y75 E40.00902
G1 X153 Y135 E43.00243
G1 X152.96 Y135.747 E43.03976
G1 X152.841 Y136.485 E43.07705
G1 X152.643 Y137.207 E43.1144
G1 X152.37 Y137.903 E43.1517
G1 X152.023 Y138.566 E43.18903
G1 X151.608 Y139.189 E43.22638
G1 X151.129 Y139.763 E43.26368
G1 X150.592 Y140.284 E43.30101
G1 X150.002 Y140.743 E43.3383
G1 X149.366 Y141.138 E43.37565
G1 X148.692 Y141.462 E43.41296
G1 X147.987 Y141.712 E43.45028
G1 X147.259 Y141.886 E43.48762
G1 X146.517 Y141.981 E43.52494
G1 X146 Y142 E43.55075
G1 X74 Y142 E47.14285
G1 X73.253 Y141.96 E47.18017
G1 X72.515 Y141.841 E47.21746
G1 X71.793 Y141.643 E47.25482
G1 X71.097 Y141.37 E47.29211
G1 X70.434 Y141.023 E47.32945
G1 X69.811 Y140.608 E47.36679
G1 X69.237 Y140.129 E47.40409
G1 X68.716 Y139.592 E47.44142
G1 X68.257 Y139.002 E47.47871
G1 X67.862 Y138.366 E47.51607
G1 X67.538 Y137.692 E47.55338
G1 X67.288 Y136.987 E47.59069
G1 X67.114 Y136.259 E47.62804
G1 X67.019 Y135.517 E47.66536
G1 X67 Y135 E47.69117
G1 X67 Y128 E48.0404
G1 X67.04 Y127.253 E48.07772
G1 X67.159 Y126.515 E48.11502
G1 X67.357 Y125.793 E48.15237
G1 X67.63 Y125.097 E48.18967
G1 X67.977 Y124.434 E48.227
G1 X68.392 Y123.811 E48.26435
G1 X68.871 Y123.237 E48.30164
G1 X69.408 Y122.716 E48.33897
G1 X69.998 Y122.257 E48.37627
G0 F3600 X70.384 Y122.479
G1 F1800 X71.013 Y122.115 E48.41252
G1 X71.678 Y121.822 E48.44878
G1 X72.371 Y121.604 E48.48502
G1 X73.083 Y121.464 E48.52122
G1 X74 Y121.4 E48.56708
G1 X131.477 Y121.4 E51.43462
G1 X131.789 Y120.95 E51.46194
G1 X132.265 Y120.402 E51.49816
G1 X132.799 Y119.909 E51.53441
G1 X133.384 Y119.479 E51.57064
G1 X133.4 Y119.47 E51.57155
G1 X133.4 Y86.6 E53.21144
G1 X130 Y86.6 E53.38107
G1 X129.275 Y86.56 E53.4173
G1 X128.558 Y86.441 E53.45356
G1 X127.859 Y86.243 E53.4898
G1 X127.186 Y85.97 E53.52603
G1 X126.547 Y85.625 E53.56226
G1 X125.95 Y85.211 E53.59851
G1 X125.402 Y84.735 E53.63472
G1 X124.909 Y84.201 E53.67098
G1 X124.479 Y83.616 E53.7072
G1 X124.115 Y82.987 E53.74346
G1 X123.822 Y82.322 E53.77972
G1 X123.604 Y81.629 E53.81596
G1 X123.464 Y80.917 E53.85216
G1 X123.4 Y80 E53.89802
G1 X123.4 Y75 E54.14747
G1 X123.44 Y74.275 E54.1837
G1 X123.559 Y73.558 E54.21996
G1 X123.757 Y72.859 E54.2562
G1 X124.03 Y72.186 E54.29244
G1 X124.375 Y71.547 E54.32867
G1 X124.789 Y70.95 E54.36491
G1 X125.265 Y70.402 E54.40113
G1 X125.799 Y69.909 E54.43739
G1 X126.384 Y69.479 E54.47361
G1 X127.013 Y69.115 E54.50986
G1 X127.678 Y68.822 E54.54612
G1 X128.371 Y68.604 E54.58236
G1 X129.083 Y68.464 E54.61857
G1 X130 Y68.4 E54.66443
G1 X146 Y68.4 E55.46267
G1 X146.725 Y68.44 E55.49889
G1 X147.442 Y68.559 E55.53515
G1 X148.141 Y68.757 E55.5714
G1 X148.814 Y69.03 E55.60763
G1 X149.453 Y69.375 E55.64386
G1 X150.05 Y69.789 E55.68011
G1 X150.598 Y70.265 E55.71632
G1 X151.091 Y70.799 E55.75258
G1 X151.521 Y71.384 E55.7888
G1 X151.885 Y72.013 E55.82506
G1 X152.178 Y72.678 E55.86131
G1 X152.396 Y73.371 E55.89756
G1 X152.536 Y74.083 E55.93376
G1 X152.6 Y75 E55.97962
G1 X152.6 Y135 E58.97303
G1 X152.56 Y135.725 E59.00926
G1 X152.441 Y136.442 E59.04552
G1 X152.243 Y137.141 E59.08176
G1 X151.97 Y137.814 E59.118
G1 X151.625 Y138.453 E59.15423
G1 X151.211 Y139.05 E59.19047
G1 X150.735 Y139.598 E59.22669
G1 X150.201 Y140.091 E59.26295
G1 X149.616 Y140.521 E59.29917
G1 X148.987 Y140.885 E59.33542
G1 X148.322 Y141.178 E59.37168
G1 X147.629 Y141.396 E59.40792
G1 X146.917 Y141.536 E59.44413
G1 X146 Y141.6 E59.48999
G1 X74 Y141.6 E63.08208
G1 X73.275 Y141.56 E63.11831
G1 X72.558 Y141.441 E63.15457
G1 X71.859 Y141.243 E63.19081
G1 X71.186 Y140.97 E63.22705
G1 X70.547 Y140.625 E63.26327
G1 X69.95 Y140.211 E63.29952
G1 X69.402 Y139.735 E63.33573
G1 X68.909 Y139.201 E63.37199
G1 X68.479 Y138.616 E63.40821
G1 X68.115 Y137.987 E63.44447
G1 X67.822 Y137.322 E63.48073
G1 X67.604 Y136.629 E63.51697
G1 X67.464 Y135.917 E63.55317
G1 X67.4 Y135 E63.59903
G1 X67.4 Y128 E63.94826
G1 X67.44 Y127.275 E63.98449
G1 X67.559 Y126.558 E64.02075
G1 X67.757 Y125.859 E64.057
G1 X68.03 Y125.186 E64.09323
G1 X68.375 Y124.547 E64.12946
G1 X68.789 Y123.95 E64.1657
G1 X69.265 Y123.402 E64.20192
G1 X69.799 Y122.909 E64.23818
G1 X70.384 Y122.479 E64.2744
G0 F3600 X70.768 Y122.709
G1 F1800 X71.389 Y122.377 E64.30953
G1 X72.043 Y122.117 E64.34464
G1 X72.723 Y121.933 E64.37979
G1 X73.419 Y121.827 E64.41491
G1 X74 Y121.8 E64.44393
G1 X131.698 Y121.8 E67.32249
G1 X131.774 Y121.665 E67.33022
G1 X132.185 Y121.094 E67.36532
G1 X132.659 Y120.573 E67.40046
G1 X133.189 Y120.109 E67.43561
G1 X133.768 Y119.709 E67.47072
G1 X133.8 Y119.692 E67.47252
G1 X133.8 Y86.2 E69.14345
G1 X130 Y86.2 E69.33303
G1 X129.297 Y86.16 E69.36816
G1 X128.603 Y86.041 E69.40329
G1 X127.928 Y85.843 E69.43838
G1 X127.279 Y85.571 E69.47349
G1 X126.665 Y85.226 E69.50863
G1 X126.094 Y84.815 E69.54373
G1 X125.573 Y84.341 E69.57887
G1 X125.109 Y83.811 E69.61401
G1 X124.709 Y83.232 E69.64912
G1 X124.377 Y82.611 E69.68425
G1 X124.117 Y81.957 E69.71936
G1 X123.933 Y81.277 E69.75451
G1 X123.827 Y80.581 E69.78963
G1 X123.8 Y80 E69.81865
G1 X123.8 Y75 E70.0681
G1 X123.84 Y74.297 E70.10323
G1 X123.959 Y73.603 E70.13836
G1 X124.157 Y72.928 E70.17345
G1 X124.429 Y72.279 E70.20856
G1 X124.774 Y71.665 E70.2437
G1 X125.185 Y71.094 E70.2788
G1 X125.659 Y70.573 E70.31394
G1 X126.189 Y70.109 E70.34908
G1 X126.768 Y69.709 E70.38419
G1 X127.389 Y69.377 E70.41932
G1 X128.043 Y69.117 E70.45443
G1 X128.723 Y68.933 E70.48958
G1 X129.419 Y68.827 E70.5247
G1 X130 Y68.8 E70.55372
G1 X146 Y68.8 E71.35196
G1 X146.703 Y68.84 E71.38709
G1 X147.397 Y68.959 E71.42222
G1 X148.072 Y69.157 E71.45732
G1 X148.721 Y69.429 E71.49243
G1 X149.335 Y69.774 E71.52756
G1 X149.906 Y70.185 E71.56266
G1 X150.427 Y70.659 E71.5978
G1 X150.891 Y71.189 E71.63295
G1 X151.291 Y71.768 E71.66806
G1 X151.623 Y72.389 E71.70319
G1 X151.883 Y73.043 E71.7383
G1 X152.067 Y73.723 E71.77344
G1 X152.173 Y74.419 E71.80857
G1 X152.2 Y75 E71.83759
G1 X152.2 Y135 E74.831
G1 X152.16 Y135.703 E74.86613
G1 X152.041 Y136.397 E74.90126
G1 X151.843 Y137.072 E74.93635
G1 X151.571 Y137.721 E74.97146
G1 X151.226 Y138.335 E75.0066
G1 X150.815 Y138.906 E75.0417
G1 X150.341 Y139.427 E75.07684
G1 X149.811 Y139.891 E75.11198
G1 X149.232 Y140.291 E75.14709
G1 X148.611 Y140.623 E75.18222
G1 X147.957 Y140.883 E75.21733
G1 X147.277 Y141.067 E75.25248
G1 X146.581 Y141.173 E75.2876
G1 X146 Y141.2 E75.31662
G1 X74 Y141.2 E78.90871
G1 X73.297 Y141.16 E78.94384
G1 X72.603 Y141.041 E78.97897
G1 X71.928 Y140.843 E79.01407
G1 X71.279 Y140.571 E79.04917
G1 X70.665 Y140.226 E79.08431
G1 X70.094 Y139.815 E79.11941
G1 X69.573 Y139.341 E79.15455
G1 X69.109 Y138.811 E79.18969
G1 X68.709 Y138.232 E79.2248
G1 X68.377 Y137.611 E79.25994
G1 X68.117 Y136.957 E79.29505
G1 X67.933 Y136.277 E79.33019
G1 X67.827 Y135.581 E79.36532
G1 X67.8 Y135 E79.39433
G1 X67.8 Y128 E79.74357
G1 X67.84 Y127.297 E79.7787
G1 X67.959 Y126.603 E79.81382
G1 X68.157 Y125.928 E79.84892
G1 X68.429 Y125.279 E79.88403
G1 X68.774 Y124.665 E79.91916
G1 X69.185 Y124.094 E79.95426
G1 X69.659 Y123.573 E79.9894
G1 X70.189 Y123.109 E80.02455
G1 X70.768 Y122.709 E80.05966
G0 F3600 X71.15 Y122.948
G1 F1800 X71.762 Y122.649 E80.09364
G1 X72.404 Y122.424 E80.12758
G1 X73.069 Y122.275 E80.16158
G1 X74 Y122.2 E80.20818
G1 X131.93 Y122.2 E83.09832
G1 X132.172 Y121.786 E83.12224
G1 X132.582 Y121.242 E83.15623
G1 X133.053 Y120.751 E83.19017
G1 X133.578 Y120.317 E83.22415
G1 X134.15 Y119.948 E83.25811
G1 X134.2 Y119.924 E83.26088
G1 X134.2 Y85.8 E84.96333
G1 X130 Y85.8 E85.17287
G1 X129.32 Y85.76 E85.20686
G1 X128.65 Y85.641 E85.24081
G1 X127.998 Y85.444 E85.27479
G1 X127.374 Y85.172 E85.30875
G1 X126.786 Y84.828 E85.34273
G1 X126.242 Y84.418 E85.37672
G1 X125.751 Y83.947 E85.41066
G1 X125.317 Y83.422 E85.44465
G1 X124.948 Y82.85 E85.47861
G1 X124.649 Y82.238 E85.51259
G1 X124.424 Y81.596 E85.54653
G1 X124.275 Y80.931 E85.58053
G1 X124.2 Y80 E85.62713
G1 X124.2 Y75 E85.87658
G1 X124.24 Y74.32 E85.91056
G1 X124.359 Y73.65 E85.94451
