;FLAVOR:Marlin
;TIME:2103
;Filament used: 2.17087m
;Layer height: 0.2
;Generated with Cura_SteamEngine 3.2.1
M190 S60
M104 S215
M109 S215
M82 ;absolute extrusion mode
G28 ;Home
G1 Z15.0 F6000 ;Move the platform down 15mm
;Prime the extruder
G92 E0
G1 F200 E3
G92 E0
;LAYER_COUNT:70
;LAYER:0
M107
G0 F3600 X79.623 Y87.849 Z0.3
;TYPE:SKIRT
G1 F1800 X80.222 Y87.334 E0.03941
G1 X80.87 Y86.883 E0.0788
G1 X81.561 Y86.499 E0.11824
G1 X82.286 Y86.187 E0.15762
G1 X83.039 Y85.95 E0.197
G1 X83.813 Y85.791 E0.23642
G1 X84.598 Y85.71 E0.27579
G1 X85 Y85.7 E0.29586
G1 X135 Y85.7 E2.79037
G1 X135.789 Y85.74 E2.82978
G1 X136.569 Y85.859 E2.86914
G1 X137.334 Y86.057 E2.90857
G1 X138.074 Y86.331 E2.94794
G1 X138.783 Y86.679 E2.98734
G1 X139.454 Y87.097 E3.02678
G1 X140.078 Y87.58 E3.06615
G1 X140.651 Y88.123 E3.10553
G1 X141.166 Y88.722 E3.14494
G1 X141.617 Y89.37 E3.18433
G1 X142.001 Y90.061 E3.22377
G1 X142.313 Y90.786 E3.26315
G1 X142.55 Y91.539 E3.30253
G1 X142.709 Y92.313 E3.34195
G1 X142.79 Y93.098 E3.38133
G1 X142.8 Y93.5 E3.40139
G1 X142.8 Y116.5 E4.54886
G1 X142.76 Y117.289 E4.58828
G1 X142.641 Y118.069 E4.62764
G1 X142.443 Y118.834 E4.66706
G1 X142.169 Y119.574 E4.70643
G1 X141.821 Y120.283 E4.74584
G1 X141.403 Y120.954 E4.78528
G1 X140.92 Y121.578 E4.82464
G1 X140.377 Y122.151 E4.86403
G1 X139.778 Y122.666 E4.90344
G1 X139.13 Y123.117 E4.94283
G1 X138.439 Y123.501 E4.98227
G1 X137.714 Y123.813 E5.02165
G1 X136.961 Y124.05 E5.06103
G1 X136.187 Y124.209 E5.10045
G1 X135.402 Y124.29 E5.13982
G1 X135 Y124.3 E5.15988
G1 X85 Y124.3 E7.65439
G1 X84.211 Y124.26 E7.69381
G1 X83.431 Y124.141 E7.73317
G1 X82.666 Y123.943 E7.7726
G1 X81.926 Y123.669 E7.81197
G1 X81.217 Y123.321 E7.85137
G1 X80.546 Y122.903 E7.89081
G1 X79.922 Y122.42 E7.93018
G1 X79.349 Y121.877 E7.96956
G1 X78.834 Y121.278 E8.00897
G1 X78.383 Y120.63 E8.04836
G1 X77.999 Y119.939 E8.0878
G1 X77.687 Y119.214 E8.12718
G1 X77.45 Y118.461 E8.16656
G1 X77.291 Y117.687 E8.20598
G1 X77.21 Y116.902 E8.24535
G1 X77.2 Y116.5 E8.26542
G1 X77.2 Y93.5 E9.41289
G1 X77.24 Y92.711 E9.45231
G1 X77.359 Y91.931 E9.49167
G1 X77.557 Y91.166 E9.53109
G1 X77.831 Y90.426 E9.57046
G1 X78.179 Y89.717 E9.60987
G1 X78.597 Y89.046 E9.64931
G1 X79.08 Y88.422 E9.68867
G1 X79.623 Y87.849 E9.72806
G0 F3600 X80.016 Y88.03
G1 F1800 X80.611 Y87.542 E9.76645
G1 X81.253 Y87.119 E9.80481
G1 X81.936 Y86.764 E9.84321
G1 X82.651 Y86.483 E9.88154
G1 X83.393 Y86.277 E9.91996
G1 X84.151 Y86.149 E9.95831
G1 X85 Y86.1 E10.00073
G1 X135 Y86.1 E12.49524
G1 X135.768 Y86.14 E12.53361
G1 X136.528 Y86.259 E12.57199
G1 X137.271 Y86.457 E12.61035
G1 X137.99 Y86.731 E12.64874
G1 X138.676 Y87.078 E12.68709
G1 X139.323 Y87.494 E12.72547
G1 X139.923 Y87.975 E12.76384
G1 X140.47 Y88.516 E12.80222
G1 X140.958 Y89.111 E12.84061
G1 X141.381 Y89.753 E12.87897
G1 X141.736 Y90.436 E12.91737
G1 X142.017 Y91.151 E12.9557
G1 X142.223 Y91.893 E12.99412
G1 X142.351 Y92.651 E13.03247
G1 X142.4 Y93.5 E13.0749
G1 X142.4 Y116.5 E14.22237
G1 X142.36 Y117.268 E14.26074
G1 X142.241 Y118.028 E14.29912
G1 X142.043 Y118.771 E14.33748
G1 X141.769 Y119.49 E14.37587
G1 X141.422 Y120.176 E14.41422
G1 X141.006 Y120.823 E14.4526
G1 X140.525 Y121.423 E14.49096
G1 X139.984 Y121.97 E14.52934
G1 X139.389 Y122.458 E14.56774
G1 X138.747 Y122.881 E14.60609
G1 X138.064 Y123.236 E14.6445
G1 X137.349 Y123.517 E14.68282
G1 X136.607 Y123.723 E14.72124
G1 X135.849 Y123.851 E14.75959
G1 X135 Y123.9 E14.80202
G1 X85 Y123.9 E17.29653
G1 X84.232 Y123.86 E17.3349
G1 X83.472 Y123.741 E17.37328
G1 X82.729 Y123.543 E17.41164
G1 X82.01 Y123.269 E17.45003
G1 X81.324 Y122.922 E17.48838
G1 X80.677 Y122.506 E17.52676
G1 X80.077 Y122.025 E17.56512
G1 X79.53 Y121.484 E17.6035
G1 X79.042 Y120.889 E17.6419
G1 X78.619 Y120.247 E17.68025
G1 X78.264 Y119.564 E17.71866
G1 X77.983 Y118.849 E17.75698
G1 X77.777 Y118.107 E17.7954
G1 X77.649 Y117.349 E17.83375
G1 X77.6 Y116.5 E17.87618
G1 X77.6 Y93.5 E19.02366
G1 X77.64 Y92.732 E19.06202
G1 X77.759 Y91.972 E19.1004
G1 X77.957 Y91.229 E19.13876
G1 X78.231 Y90.51 E19.17715
G1 X78.578 Y89.824 E19.21551
G1 X78.994 Y89.177 E19.25388
G1 X79.475 Y88.577 E19.29225
G1 X80.016 Y88.03 E19.33063
G0 F3600 X80.408 Y88.216
G1 F1800 X80.998 Y87.757 E19.36792
G1 X81.634 Y87.362 E19.40528
G1 X82.308 Y87.038 E19.44258
G1 X83.013 Y86.788 E19.4799
G1 X83.741 Y86.614 E19.51725
G1 X84.483 Y86.519 E19.55457
G1 X85 Y86.5 E19.58038
G1 X135 Y86.5 E22.07489
G1 X135.747 Y86.54 E22.11221
G1 X136.485 Y86.659 E22.1495
G1 X137.207 Y86.857 E22.18685
G1 X137.903 Y87.13 E22.22415
G1 X138.566 Y87.477 E22.26149
G1 X139.189 Y87.892 E22.29883
G1 X139.763 Y88.371 E22.33613
G1 X140.284 Y88.908 E22.37346
G1 X140.743 Y89.498 E22.41075
G1 X141.138 Y90.134 E22.44811
G1 X141.462 Y90.808 E22.48541
G1 X141.712 Y91.513 E22.52273
G1 X141.886 Y92.241 E22.56008
G1 X141.981 Y92.983 E22.5974
G1 X142 Y93.5 E22.62321
G1 X142 Y116.5 E23.77068
G1 X141.96 Y117.247 E23.808
G1 X141.841 Y117.985 E23.8453
G1 X141.643 Y118.707 E23.88265
G1 X141.37 Y119.403 E23.91995
G1 X141.023 Y120.066 E23.95728
G1 X140.608 Y120.689 E23.99463
G1 X140.129 Y121.263 E24.03193
G1 X139.592 Y121.784 E24.06925
G1 X139.002 Y122.243 E24.10655
G1 X138.366 Y122.638 E24.1439
G1 X137.692 Y122.962 E24.18121
G1 X136.987 Y123.212 E24.21853
G1 X136.259 Y123.386 E24.25587
G1 X135.517 Y123.481 E24.29319
G1 X135 Y123.5 E24.319
G1 X85 Y123.5 E26.81351
G1 X84.253 Y123.46 E26.85083
G1 X83.515 Y123.341 E26.88813
G1 X82.793 Y123.143 E26.92548
G1 X82.097 Y122.87 E26.96278
G1 X81.434 Y122.523 E27.00011
G1 X80.811 Y122.108 E27.03746
G1 X80.237 Y121.629 E27.07476
G1 X79.716 Y121.092 E27.11208
G1 X79.257 Y120.502 E27.14938
G1 X78.862 Y119.866 E27.18673
G1 X78.538 Y119.192 E27.22404
G1 X78.288 Y118.487 E27.26136
G1 X78.114 Y117.759 E27.2987
G1 X78.019 Y117.017 E27.33602
G1 X78 Y116.5 E27.36183
G1 X78 Y93.5 E28.50931
G1 X78.04 Y92.753 E28.54663
G1 X78.159 Y92.015 E28.58392
G1 X78.357 Y91.293 E28.62127
G1 X78.63 Y90.597 E28.65857
G1 X78.977 Y89.934 E28.69591
G1 X79.392 Y89.311 E28.73325
G1 X79.871 Y88.737 E28.77055
G1 X80.408 Y88.216 E28.80788
G0 F3600 X80.265 Y88.902
G1 F1800 X80.799 Y88.409 E28.84414
G1 X81.384 Y87.979 E28.88036
G1 X82.013 Y87.615 E28.91662
G1 X82.678 Y87.322 E28.95287
G1 X83.371 Y87.104 E28.98912
G1 X84.083 Y86.964 E29.02532
G1 X85 Y86.9 E29.07118
G1 X135 Y86.9 E31.56569
G1 X135.725 Y86.94 E31.60191
G1 X136.442 Y87.059 E31.63817
G1 X137.141 Y87.257 E31.67442
G1 X137.814 Y87.53 E31.71065
G1 X138.453 Y87.875 E31.74688
G1 X139.05 Y88.289 E31.78313
G1 X139.598 Y88.765 E31.81934
G1 X140.091 Y89.299 E31.8556
G1 X140.521 Y89.884 E31.89182
G1 X140.885 Y90.513 E31.92808
G1 X141.178 Y91.178 E31.96433
G1 X141.396 Y91.871 E32.00058
G1 X141.536 Y92.583 E32.03678
G1 X141.6 Y93.5 E32.08264
G1 X141.6 Y116.5 E33.23012
G1 X141.56 Y117.225 E33.26634
G1 X141.441 Y117.942 E33.3026
G1 X141.243 Y118.641 E33.33885
G1 X140.97 Y119.314 E33.37508
G1 X140.625 Y119.953 E33.41131
G1 X140.211 Y120.55 E33.44756
G1 X139.735 Y121.098 E33.48377
G1 X139.201 Y121.591 E33.52003
G1 X138.616 Y122.021 E33.55625
G1 X137.987 Y122.385 E33.59251
G1 X137.322 Y122.678 E33.62876
G1 X136.629 Y122.896 E33.66501
G1 X135.917 Y123.036 E33.70121
G1 X135 Y123.1 E33.74707
G1 X85 Y123.1 E36.24158
G1 X84.275 Y123.06 E36.2778
G1 X83.558 Y122.941 E36.31406
G1 X82.859 Y122.743 E36.35031
G1 X82.186 Y122.47 E36.38654
G1 X81.547 Y122.125 E36.42277
G1 X80.95 Y121.711 E36.45902
G1 X80.402 Y121.235 E36.49523
G1 X79.909 Y120.701 E36.53149
G1 X79.479 Y120.116 E36.56771
G1 X79.115 Y119.487 E36.60397
G1 X78.822 Y118.822 E36.64022
G1 X78.604 Y118.129 E36.67647
G1 X78.464 Y117.417 E36.71267
G1 X78.4 Y116.5 E36.75853
G1 X78.4 Y93.5 E37.90601
G1 X78.44 Y92.775 E37.94223
G1 X78.559 Y92.058 E37.97849
G1 X78.757 Y91.359 E38.01474
G1 X79.03 Y90.686 E38.05097
G1 X79.375 Y90.047 E38.0872
G1 X79.789 Y89.45 E38.12344
G1 X80.265 Y88.902 E38.15966
G0 F3600 X80.659 Y89.073
G1 F1800 X81.189 Y88.609 E38.1948
G1 X81.768 Y88.209 E38.22991
G1 X82.389 Y87.877 E38.26504
G1 X83.043 Y87.617 E38.30015
G1 X83.723 Y87.433 E38.3353
G1 X84.419 Y87.327 E38.37042
G1 X85 Y87.3 E38.39944
G1 X135 Y87.3 E40.89395
G1 X135.703 Y87.34 E40.92908
G1 X136.397 Y87.459 E40.96421
G1 X137.072 Y87.657 E40.9993
G1 X137.721 Y87.929 E41.03441
G1 X138.335 Y88.274 E41.06955
G1 X138.906 Y88.685 E41.10465
G1 X139.427 Y89.159 E41.13979
G1 X139.891 Y89.689 E41.17493
G1 X140.291 Y90.268 E41.21004
G1 X140.623 Y90.889 E41.24517
G1 X140.883 Y91.543 E41.28029
G1 X141.067 Y92.223 E41.31543
G1 X141.173 Y92.919 E41.35056
G1 X141.2 Y93.5 E41.37957
G1 X141.2 Y116.5 E42.52705
G1 X141.16 Y117.203 E42.56218
G1 X141.041 Y117.897 E42.59731
G1 X140.843 Y118.572 E42.6324
G1 X140.571 Y119.221 E42.66751
G1 X140.226 Y119.835 E42.70265
G1 X139.815 Y120.406 E42.73774
G1 X139.341 Y120.927 E42.77289
G1 X138.811 Y121.391 E42.80803
G1 X138.232 Y121.791 E42.84314
G1 X137.611 Y122.123 E42.87827
G1 X136.957 Y122.383 E42.91338
G1 X136.277 Y122.567 E42.94853
G1 X135.581 Y122.673 E42.98365
G1 X135 Y122.7 E43.01267
G1 X85 Y122.7 E45.50718
G1 X84.297 Y122.66 E45.54231
G1 X83.603 Y122.541 E45.57744
G1 X82.928 Y122.343 E45.61253
G1 X82.279 Y122.071 E45.64764
G1 X81.665 Y121.726 E45.68278
G1 X81.094 Y121.315 E45.71788
G1 X80.573 Y120.841 E45.75302
G1 X80.109 Y120.311 E45.78816
G1 X79.709 Y119.732 E45.82327
G1 X79.377 Y119.111 E45.8584
G1 X79.117 Y118.457 E45.89351
G1 X78.933 Y117.777 E45.92866
G1 X78.827 Y117.081 E45.96378
G1 X78.8 Y116.5 E45.9928
G1 X78.8 Y93.5 E47.14027
G1 X78.84 Y92.797 E47.1754
G1 X78.959 Y92.103 E47.21053
G1 X79.157 Y91.428 E47.24563
G1 X79.429 Y90.779 E47.28073
G1 X79.774 Y90.165 E47.31587
G1 X80.185 Y89.594 E47.35097
G1 X80.659 Y89.073 E47.38611
G0 F3600 X81.053 Y89.251
G1 F1800 X81.578 Y88.817 E47.4201
G1 X82.15 Y88.448 E47.45406
G1 X82.762 Y88.149 E47.48804
G1 X83.404 Y87.924 E47.52198
G1 X84.069 Y87.775 E47.55598
G1 X85 Y87.7 E47.60257
G1 X135 Y87.7 E50.09708
G1 X135.68 Y87.74 E50.13107
G1 X136.35 Y87.859 E50.16502
G1 X137.002 Y88.056 E50.199
G1 X137.626 Y88.328 E50.23296
G1 X138.214 Y88.672 E50.26695
G1 X138.758 Y89.082 E50.30093
G1 X139.249 Y89.553 E50.33488
G1 X139.683 Y90.078 E50.36886
G1 X140.052 Y90.65 E50.40282
G1 X140.351 Y91.262 E50.4368
G1 X140.576 Y91.904 E50.47074
G1 X140.725 Y92.569 E50.50474
G1 X140.8 Y93.5 E50.55134
G1 X140.8 Y116.5 E51.69881
G1 X140.76 Y117.18 E51.7328
G1 X140.641 Y117.85 E51.76675
G1 X140.444 Y118.502 E51.80073
G1 X140.172 Y119.126 E51.83469
G1 X139.828 Y119.714 E51.86868
G1 X139.418 Y120.258 E51.90266
G1 X138.947 Y120.749 E51.93661
G1 X138.422 Y121.183 E51.97059
G1 X137.85 Y121.552 E52.00455
G1 X137.238 Y121.851 E52.03853
G1 X136.596 Y122.076 E52.07247
G1 X135.931 Y122.225 E52.10647
G1 X135 Y122.3 E52.15307
G1 X85 Y122.3 E54.64758
G1 X84.32 Y122.26 E54.68156
G1 X83.65 Y122.141 E54.71551
G1 X82.998 Y121.944 E54.74949
G1 X82.374 Y121.672 E54.78345
G1 X81.786 Y121.328 E54.81744
G1 X81.242 Y120.918 E54.85143
G1 X80.751 Y120.447 E54.88537
G1 X80.317 Y119.922 E54.91935
G1 X79.948 Y119.35 E54.95331
G1 X79.649 Y118.738 E54.98729
G1 X79.424 Y118.096 E55.02123
G1 X79.275 Y117.431 E55.05523
G1 X79.2 Y116.5 E55.10183
G1 X79.2 Y93.5 E56.24931
G1 X79.24 Y92.82 E56.28329
G1 X79.359 Y92.15 E56.31724
G1 X79.556 Y91.498 E56.35122
G1 X79.828 Y90.874 E56.38518
G1 X80.172 Y90.286 E56.41917
G1 X80.582 Y89.742 E56.45315
G1 X81.053 Y89.251 E56.4871
G0 F3600 X81.445 Y89.435
G1 F1800 X81.965 Y89.034 E56.51986
G1 X82.529 Y88.698 E56.55261
G1 X83.131 Y88.434 E56.58541
G1 X83.76 Y88.244 E56.61819
G1 X84.407 Y88.133 E56.65094
G1 X85 Y88.1 E56.68057
G1 X135 Y88.1 E59.17508
G1 X135.656 Y88.14 E59.20787
G1 X136.302 Y88.259 E59.24064
G1 X136.929 Y88.456 E59.27343
G1 X137.527 Y88.728 E59.3062
G1 X138.088 Y89.07 E59.33898
G1 X138.603 Y89.478 E59.37176
G1 X139.065 Y89.945 E59.40454
G1 X139.466 Y90.465 E59.4373
G1 X139.802 Y91.029 E59.47005
G1 X140.066 Y91.631 E59.50285
G1 X140.256 Y92.26 E59.53563
G1 X140.367 Y92.907 E59.56838
G1 X140.4 Y93.5 E59.59801
G1 X140.4 Y116.5 E60.74548
G1 X140.36 Y117.156 E60.77827
G1 X140.241 Y117.802 E60.81104
G1 X140.044 Y118.429 E60.84383
G1 X139.772 Y119.027 E60.87661
G1 X139.43 Y119.588 E60.90939
G1 X139.022 Y120.103 E60.94217
G1 X138.555 Y120.565 E60.97494
G1 X138.035 Y120.966 E61.0077
G1 X137.471 Y121.302 E61.04045
G1 X136.869 Y121.566 E61.07325
G1 X136.24 Y121.756 E61.10603
G1 X135.593 Y121.867 E61.13878
G1 X135 Y121.9 E61.16841
G1 X85 Y121.9 E63.66292
G1 X84.344 Y121.86 E63.69571
G1 X83.698 Y121.741 E63.72848
G1 X83.071 Y121.544 E63.76127
G1 X82.473 Y121.272 E63.79404
G1 X81.912 Y120.93 E63.82682
G1 X81.397 Y120.522 E63.8596
G1 X80.935 Y120.055 E63.89238
G1 X80.534 Y119.535 E63.92514
G1 X80.198 Y118.971 E63.95789
G1 X79.934 Y118.369 E63.99069
G1 X79.744 Y117.74 E64.02347
G1 X79.633 Y117.093 E64.05622
G1 X79.6 Y116.5 E64.08585
G1 X79.6 Y93.5 E65.23332
G1 X79.64 Y92.844 E65.26611
G1 X79.759 Y92.198 E65.29888
G1 X79.956 Y91.571 E65.33167
G1 X80.228 Y90.973 E65.36445
G1 X80.57 Y90.412 E65.39723
G1 X80.978 Y89.897 E65.43001
G1 X81.445 Y89.435 E65.46278
G0 F3600 X81.373 Y90.059
G1 F1800 X81.836 Y89.629 E65.4943
G1 X82.35 Y89.26 E65.52587
G1 X82.906 Y88.96 E65.55739
G1 X83.495 Y88.732 E65.5889
G1 X84.109 Y88.58 E65.62046
G1 X85 Y88.5 E65.66509
G1 X135 Y88.5 E68.1596
G1 X135.631 Y88.54 E68.19114
G1 X136.252 Y88.659 E68.22269
G1 X136.852 Y88.856 E68.25419
G1 X137.424 Y89.127 E68.28577
G1 X137.956 Y89.467 E68.31727
G1 X138.441 Y89.873 E68.34883
G1 X138.871 Y90.336 E68.38035
G1 X139.24 Y90.85 E68.41192
G1 X139.54 Y91.406 E68.44344
G1 X139.768 Y91.995 E68.47495
G1 X139.92 Y92.609 E68.50651
G1 X140 Y93.5 E68.55114
G1 X140 Y116.5 E69.69861
G1 X139.96 Y117.131 E69.73016
G1 X139.841 Y117.752 E69.7617
G1 X139.644 Y118.352 E69.79321
G1 X139.373 Y118.924 E69.82479
G1 X139.033 Y119.456 E69.85628
G1 X138.627 Y119.941 E69.88784
G1 X138.164 Y120.371 E69.91936
G1 X137.65 Y120.74 E69.95093
G1 X137.094 Y121.04 E69.98245
G1 X136.505 Y121.268 E70.01396
G1 X135.891 Y121.42 E70.04552
G1 X135 Y121.5 E70.09015
G1 X85 Y121.5 E72.58466
G1 X84.369 Y121.46 E72.6162
G1 X83.748 Y121.341 E72.64775
G1 X83.148 Y121.144 E72.67926
G1 X82.576 Y120.873 E72.71083
G1 X82.044 Y120.533 E72.74233
G1 X81.559 Y120.127 E72.77389
G1 X81.129 Y119.664 E72.80541
G1 X80.76 Y119.15 E72.83698
G1 X80.46 Y118.594 E72.8685
G1 X80.232 Y118.005 E72.90001
G1 X80.08 Y117.391 E72.93157
G1 X80 Y116.5 E72.9762
G1 X80 Y93.5 E74.12367
G1 X80.04 Y92.869 E74.15522
G1 X80.159 Y92.248 E74.18676
G1 X80.356 Y91.648 E74.21827
G1 X80.627 Y91.076 E74.24985
G1 X80.967 Y90.544 E74.28135
G1 X81.373 Y90.059 E74.3129
G0 F3600 X81.767 Y90.228
G1 F1800 X82.225 Y89.831 E74.34314
G1 X82.732 Y89.498 E74.3734
G1 X83.278 Y89.234 E74.40366
G1 X83.854 Y89.045 E74.4339
G1 X84.45 Y88.933 E74.46416
G1 X85 Y88.9 E74.49165
G1 X135 Y88.9 E76.98616
G1 X135.605 Y88.94 E77.01641
G1 X136.199 Y89.059 E77.04663
G1 X136.773 Y89.255 E77.07689
G1 X137.316 Y89.526 E77.10717
G1 X137.819 Y89.865 E77.13743
G1 X138.272 Y90.267 E77.16765
G1 X138.669 Y90.725 E77.19789
G1 X139.002 Y91.232 E77.22815
G1 X139.266 Y91.778 E77.25841
G1 X139.455 Y92.354 E77.28865
G1 X139.567 Y92.95 E77.3189
G1 X139.6 Y93.5 E77.34639
G1 X139.6 Y116.5 E78.49387
G1 X139.56 Y117.105 E78.52412
G1 X139.441 Y117.699 E78.55434
G1 X139.245 Y118.273 E78.5846
G1 X138.974 Y118.816 E78.61488
G1 X138.635 Y119.319 E78.64514
G1 X138.233 Y119.772 E78.67536
G1 X137.775 Y120.169 E78.7056
G1 X137.268 Y120.502 E78.73586
G1 X136.722 Y120.766 E78.76611
G1 X136.146 Y120.955 E78.79636
G1 X135.55 Y121.067 E78.82661
G1 X135 Y121.1 E78.8541
G1 X85 Y121.1 E81.34861
G1 X84.395 Y121.06 E81.37886
G1 X83.801 Y120.941 E81.40909
G1 X83.227 Y120.745 E81.43935
G1 X82.684 Y120.474 E81.46962
G1 X82.181 Y120.135 E81.49989
G1 X81.728 Y119.733 E81.5301
G1 X81.331 Y119.275 E81.56034
G1 X80.998 Y118.768 E81.5906
G1 X80.734 Y118.222 E81.62086
G1 X80.545 Y117.646 E81.6511
G1 X80.433 Y117.05 E81.68136
G1 X80.4 Y116.5 E81.70885
G1 X80.4 Y93.5 E82.85632
G1 X80.44 Y92.895 E82.88657
G1 X80.559 Y92.301 E82.9168
G1 X80.755 Y91.727 E82.94706
G1 X81.026 Y91.184 E82.97733
G1 X81.365 Y90.681 E83.0076
G1 X81.767 Y90.228 E83.03781
G0 F3600 X82.16 Y90.406
G1 F1800 X82.613 Y90.044 E83.06674
